img/svg/bulb.svg

<?xml version="1.0" encoding="iso-8859-1"?>
<!-- Generator: Adobe Illustrator 16.0.0, SVG Export Plug-In . SVG Version: 6.00 Build 0)  -->
<!DOCTYPE svg PUBLIC "-//W3C//DTD SVG 1.1//EN" "http://www.w3.org/Graphics/SVG/1.1/DTD/svg11.dtd">
<svg version="1.1" id="Capa_1" xmlns="http://www.w3.org/2000/svg" xmlns:xlink="http://www.w3.org/1999/xlink" x="0px" y="0px"
	 width="47.286px" height="47.286px" viewBox="0 0 47.286 47.286" style="enable-background:new 0 0 47.286 47.286;"
	 xml:space="preserve">
<g>
	<g>
		<g>
			<path d="M16.673,43.197c0,2.258,1.872,4.089,4.182,4.089h5.576c2.312,0,4.184-1.831,4.184-4.089v-1.922h-13.94v1.922H16.673z"/>
			<path d="M35.847,23.071c1.789-2.493,2.735-5.405,2.735-8.422C38.582,6.571,31.88,0,23.643,0C15.405,0,8.704,6.572,8.704,14.649
				c0,2.87,0.858,5.655,2.484,8.062c0.075,0.136,0.152,0.26,0.225,0.354c2.772,3.87,3.329,5.135,3.329,5.921v2.8h-0.743
				c-0.689,0-1.245,0.261-1.245,1.085v5.33c0,0.824,0.557,1.248,1.245,1.248h19.289c0.689,0,1.245-0.424,1.245-1.248v-5.33
				c0-0.824-0.558-1.085-1.245-1.085h-0.745v-2.8C32.543,28.325,32.798,27.324,35.847,23.071z"/>
		</g>
	</g>
</g>
<g>
</g>
<g>
</g>
<g>
</g>
<g>
</g>
<g>
</g>
<g>
</g>
<g>
</g>
<g>
</g>
<g>
</g>
<g>
</g>
<g>
</g>
<g>
</g>
<g>
</g>
<g>
</g>
<g>
</g>
</svg>

<?xml version="1.0" encoding="UTF-8" standalone="no"?>
<!DOCTYPE svg PUBLIC "-//W3C//DTD SVG 1.1//EN" "http://www.w3.org/Graphics/SVG/1.1/DTD/svg11.dtd">
<svg width="100%" height="100%" viewBox="0 0 47 47" version="1.1" xmlns="http://www.w3.org/2000/svg" xmlns:xlink="http://www.w3.org/1999/xlink" xml:space="preserve" xmlns:serif="http://www.serif.com/" style="fill-rule:evenodd;clip-rule:evenodd;stroke-linejoin:round;stroke-miterlimit:2;">
    <g>
        <path d="M16.673,43.197C16.673,45.455 18.545,47.286 20.855,47.286L26.431,47.286C28.743,47.286 30.615,45.455 30.615,43.197L30.615,41.275L16.675,41.275L16.675,43.197L16.673,43.197Z" style="fill:rgb(245,163,194);fill-rule:nonzero;"/>
        <clipPath id="_clip1">
            <path d="M35.847,23.071C37.636,20.578 38.582,17.666 38.582,14.649C38.582,6.571 31.88,0 23.643,0C15.405,0 8.704,6.572 8.704,14.649C8.704,17.519 9.562,20.304 11.188,22.711C11.263,22.847 11.34,22.971 11.413,23.065C14.185,26.935 14.742,28.2 14.742,28.986L14.742,31.786L13.999,31.786C13.31,31.786 12.754,32.047 12.754,32.871L12.754,38.201C12.754,39.025 13.311,39.449 13.999,39.449L33.288,39.449C33.977,39.449 34.533,39.025 34.533,38.201L34.533,32.871C34.533,32.047 33.975,31.786 33.288,31.786L32.543,31.786L32.543,28.986C32.543,28.325 32.798,27.324 35.847,23.071Z" clip-rule="nonzero"/>
        </clipPath>
        <g clip-path="url(#_clip1)">
            <use xlink:href="#_Image2" x="8.74" y="0" width="29.878px" height="39.449px" transform="matrix(0.995933,0,0,0.986225,0,0)"/>
        </g>
    </g>
    <defs>
        <image id="_Image2" width="30px" height="40px" xlink:href="data:image/jpeg;base64,/9j/4AAQSkZJRgABAQEAYABgAAD/2wBDAAUDBAQEAwUEBAQFBQUGBwwIBwcHBw8LCwkMEQ8SEhEPERETFhwXExQaFRERGCEYGh0dHx8fExciJCIeJBweHx7/2wBDAQUFBQcGBw4ICA4eFBEUHh4eHh4eHh4eHh4eHh4eHh4eHh4eHh4eHh4eHh4eHh4eHh4eHh4eHh4eHh4eHh4eHh7/wAARCAAoAB4DAREAAhEBAxEB/8QAHwAAAQUBAQEBAQEAAAAAAAAAAAECAwQFBgcICQoL/8QAtRAAAgEDAwIEAwUFBAQAAAF9AQIDAAQRBRIhMUEGE1FhByJxFDKBkaEII0KxwRVS0fAkM2JyggkKFhcYGRolJicoKSo0NTY3ODk6Q0RFRkdISUpTVFVWV1hZWmNkZWZnaGlqc3R1dnd4eXqDhIWGh4iJipKTlJWWl5iZmqKjpKWmp6ipqrKztLW2t7i5usLDxMXGx8jJytLT1NXW19jZ2uHi4+Tl5ufo6erx8vP09fb3+Pn6/8QAHwEAAwEBAQEBAQEBAQAAAAAAAAECAwQFBgcICQoL/8QAtREAAgECBAQDBAcFBAQAAQJ3AAECAxEEBSExBhJBUQdhcRMiMoEIFEKRobHBCSMzUvAVYnLRChYkNOEl8RcYGRomJygpKjU2Nzg5OkNERUZHSElKU1RVVldYWVpjZGVmZ2hpanN0dXZ3eHl6goOEhYaHiImKkpOUlZaXmJmaoqOkpaanqKmqsrO0tba3uLm6wsPExcbHyMnK0tPU1dbX2Nna4uPk5ebn6Onq8vP09fb3+Pn6/9oADAMBAAIRAxEAPwD24ZoP0MQ0AFAAcjpigBaAE6dTQAUAIeB3AoAWgAPWgBe3f86AEwD96gBepBoATI6dKADtQAEZ4zQAcUAHagA7A0AABzigR//Z"/>
    </defs>
</svg>
